!!!COM: Unknown
!!!CDT: Unknown
!!!OTL: National Anthem, United States of America - The Star-Spangled Banner
!!!ENC: Davis, Matthew J.
!!Vocal Line Only
**kern
*clefG2
*k[b-e-]
*B-:
*M3/4
=1-
8.f
16d
==!|:2
4B-
4d
4f
=3
2b-
8.dd
16cc
=4
4b-
4d
4en
=5
2f
8f
8f
=6
4.dd
8cc
4b-
=7
2a
8g
8a
=8
4b-
4b-
4f
=9
!First Ending
4d
4B-
8.f
16d
==:|!10
!Second Ending
4d
4B-
8.dd
16dd
=11
4dd
4ee-
4ff
=12
2ff
8ee-
8dd
=13
4cc
4dd
4ee-
=14
2ee-
4ee-
=15
4.dd
8cc
4b-
=16
2a
8g
8a
=17
4b-
4d
4en
=18
2f
4f
=19
4b-
4b-
8b-
8a
=20
4g
4g
4g
=21
4cc
8ee-
8dd
8cc
8b-
=22
4b-
4a
8f
8f
=23
4.b-
8cc
8dd
8ee-
=24
2ff
8b-
8cc
=25
4.dd
8ee-
4cc
=26
2b-
==|!
*-
